files/kryptex.svg

<svg clip-rule="evenodd" fill-rule="evenodd" stroke-linejoin="round" stroke-miterlimit="2" viewBox="0 0 560 400" xmlns="http://www.w3.org/2000/svg" xmlns:xlink="http://www.w3.org/1999/xlink"><linearGradient id="a"><stop offset="0" stop-color="#0eafff"/><stop offset="1" stop-color="#0163e5"/></linearGradient><linearGradient id="b" gradientTransform="matrix(8.3621 7.0166 -7.0166 8.3621 12.0415 5.8512)" gradientUnits="userSpaceOnUse" x1="0" x2="1" xlink:href="#a" y1="0" y2="0"/><linearGradient id="c"><stop offset="0" stop-color="#48beff"/><stop offset=".43" stop-color="#1ca3ff"/><stop offset="1" stop-color="#1ca3ff"/></linearGradient><linearGradient id="d" gradientTransform="matrix(8.2917 9.8816 -9.8816 8.2917 12.5706 3.4477)" gradientUnits="userSpaceOnUse" x1="0" x2="1" xlink:href="#c" y1="0" y2="0"/><linearGradient id="e" gradientTransform="matrix(8.362 7.0165 -7.0165 8.362 11.8805 6.0432)" gradientUnits="userSpaceOnUse" x1="0" x2="1" xlink:href="#a" y1="0" y2="0"/><linearGradient id="f" gradientTransform="matrix(8.2917 9.8817 -9.8817 8.2917 11.9888 3.9358)" gradientUnits="userSpaceOnUse" x1="0" x2="1" xlink:href="#c" y1="0" y2="0"/><linearGradient id="g" gradientTransform="matrix(8.3621 7.0166 -7.0166 8.3621 15.7122 1.4766)" gradientUnits="userSpaceOnUse" x1="0" x2="1" xlink:href="#a" y1="0" y2="0"/><linearGradient id="h" gradientTransform="matrix(8.2917 9.8816 -9.8816 8.2917 15.8031 .7353)" gradientUnits="userSpaceOnUse" x1="0" x2="1" xlink:href="#c" y1="0" y2="0"/><linearGradient id="i" gradientTransform="matrix(8.3621 7.0166 -7.0166 8.3621 17.3052 -.4218)" gradientUnits="userSpaceOnUse" x1="0" x2="1" xlink:href="#a" y1="0" y2="0"/><linearGradient id="j" gradientTransform="matrix(8.2917 9.8816 -9.8816 8.2917 18.3529 -1.4042)" gradientUnits="userSpaceOnUse" x1="0" x2="1" xlink:href="#c" y1="0" y2="0"/><linearGradient id="k" gradientTransform="matrix(8.362 7.0166 -7.0166 8.362 16.6034 .4146)" gradientUnits="userSpaceOnUse" x1="0" x2="1" xlink:href="#a" y1="0" y2="0"/><linearGradient id="l" gradientTransform="matrix(8.2917 9.8816 -9.8816 8.2917 17.2295 -.4616)" gradientUnits="userSpaceOnUse" x1="0" x2="1" xlink:href="#c" y1="0" y2="0"/><linearGradient id="m" gradientUnits="userSpaceOnUse" x1="0" x2="15.1035" y1="6.3174" y2="6.3174"><stop offset="0" stop-color="#2baafb"/><stop offset="1" stop-color="#0163e5"/></linearGradient><g transform="matrix(3.92157 0 0 3.92157 70 162.745)"><g fill="#000001" fill-rule="nonzero"><path d="m39.6 10.3-1.7 1.8v3.2h-2.9v-12.8h2.9v6l5.7-6h3.3l-5.3 5.7 5.6 7.1h-3.4z"/><path d="m52.3 5.7c.6-.2 1.2-.4 2-.4v2.7h-.6c-.8 0-1.5.2-1.9.7-.5.5-.7 1.1-.7 2.1v4.6h-2.8v-9.9h2.7v1.3c.3-.5.7-.8 1.3-1.1z"/><path d="m66.5 5.5-4.4 10.4c-.4 1.1-1 1.9-1.7 2.4-.6.5-1.4.7-2.4.7-.5 0-1-.1-1.5-.2-.5-.2-.9-.4-1.2-.7l1-2c.2.2.5.3.8.5.3.1.6.2.8.2.4 0 .7-.1.9-.3s.5-.5.7-.9v-.1l-4.2-9.9h2.9l2.8 6.7 2.8-6.7h2.7z"/><path d="m75.6 6c.7.4 1.3 1 1.8 1.8.4.8.6 1.6.6 2.7 0 1-.2 1.9-.6 2.7s-1 1.3-1.8 1.8c-.7.4-1.6.6-2.5.6-1.3 0-2.2-.4-3-1.2v4.6h-2.8v-13.5h2.7v1.1c.7-.9 1.7-1.3 3.1-1.3.9 0 1.8.3 2.5.7zm-1.2 6.4c.5-.5.7-1.2.7-2s-.2-1.5-.7-2-1.1-.7-1.8-.7-1.3.2-1.8.7-.7 1.2-.7 2 .2 1.5.7 2 1.1.7 1.8.7c.8 0 1.4-.2 1.8-.7z"/><path d="m85.9 14.8c-.3.2-.6.4-1 .5s-.8.2-1.3.2c-1.2 0-2.1-.3-2.7-.9s-1-1.5-1-2.6v-4h-1.5v-2.3h1.5v-2.4h2.8v2.4h2.4v2.2h-2.4v4c0 .4.1.7.3 1 .2.2.5.3.9.3s.8-.1 1.1-.4z"/><path d="m96.3 11.2h-7.4c.1.6.4 1.1.9 1.4.5.4 1.1.5 1.9.5.5 0 1-.1 1.4-.2.4-.2.8-.4 1.1-.7l1.5 1.6c-.9 1.1-2.3 1.6-4 1.6-1.1 0-2.1-.2-2.9-.6-.9-.4-1.5-1-2-1.8s-.7-1.6-.7-2.6.2-1.8.7-2.6c.4-.8 1-1.4 1.8-1.8s1.7-.6 2.7-.6 1.8.2 2.6.6 1.4 1 1.8 1.8.7 1.7.7 2.7c0 0 0 .2-.1.7zm-6.6-3.2c-.4.4-.7.9-.8 1.5h4.8c-.1-.6-.4-1.1-.8-1.5s-1-.6-1.6-.6c-.7.1-1.2.3-1.6.6z"/><path d="m103.8 15.3-2.2-3-2.2 3h-3.1l3.8-4.9-3.6-4.9h3.2l2.1 2.9 2.1-2.9h3l-3.6 4.8 3.8 5z"/></g><g><path d="m26.2 5.8c0-.1-.1-.3-.2-.3.1 0 .2.1.2.3z" fill="none"/><path d="m15.1 2.7-4.8 8.1z" fill="none"/><path d="m26 6.1c.1-.1.2-.2.2-.4 0 .2 0 .4-.2.4z" fill="none"/><g fill-rule="nonzero"><path d="m26 6.1c.1-.1.2-.2.2-.4 0-.1-.1-.3-.2-.3l-1.6-.4-3.1-.8h-.1l-6-1.5-4.8 8-.1.2-2 3.4 2.2 2.2z" fill="url(#b)"/><path d="m26 6.1c.1-.1.2-.2.2-.4 0-.1-.1-.3-.2-.3l-1.6-.4-3.1-.8h-.1l-6-1.5-4.8 8-.1.2-2 3.4 2.2 2.2z" fill="url(#b)"/><path d="m26.4 4.3-4.2-3.9c-.2-.3-.5-.4-.9-.4h-4.6l-1.6 2.7 6 1.5h.1l3.1.8 1.7.5c.1 0 .2.2.2.3s-.1.3-.2.4l-15.6 10.4 1.9 1.9c.3.3.7.5 1.2.5.3 0 .7-.1.9-.3l.3-.3 11.9-11.7c.3-.3.4-.7.4-1.1 0-.5-.2-1-.6-1.3z" fill="url(#d)"/><path d="m26.4 4.3-4.2-3.9c-.2-.3-.5-.4-.9-.4h-4.6l-1.6 2.7 6 1.5h.1l3.1.8 1.7.5c.1 0 .2.2.2.3s-.1.3-.2.4l-15.6 10.4 1.9 1.9c.3.3.7.5 1.2.5.3 0 .7-.1.9-.3l.3-.3 11.9-11.7c.3-.3.4-.7.4-1.1 0-.5-.2-1-.6-1.3z" fill="url(#d)"/><path d="m26 6.1-15.6 10.5z" fill="url(#e)"/><path d="m26 6.1-15.6 10.5z" fill="url(#f)"/><path d="m26 6.1-15.6 10.5z" fill="url(#e)"/><path d="m26 6.1-15.6 10.5z" fill="url(#f)"/><path d="m15.1 2.7 6 1.6z" fill="url(#g)"/><path d="m15.1 2.7 6 1.6z" fill="url(#h)"/><path d="m15.1 2.7 6 1.6z" fill="url(#g)"/><path d="m15.1 2.7 6 1.6z" fill="url(#h)"/><path d="m26 5.5-1.6-.4-3.1-.8 3.1.8z" fill="url(#i)"/><path d="m26 5.5-1.6-.4-3.1-.8 3.1.8z" fill="url(#j)"/><path d="m26 5.5-1.6-.4-3.1-.8 3.1.8z" fill="url(#i)"/><path d="m26 5.5-1.6-.4-3.1-.8 3.1.8z" fill="url(#j)"/><path d="m21.3 4.3h-.2z" fill="url(#k)"/><path d="m21.3 4.3h-.2z" fill="url(#l)"/><path d="m21.3 4.3h-.2z" fill="url(#k)"/><path d="m21.3 4.3h-.2z" fill="url(#l)"/><path d="m21.3 4.3h-.2z" fill="url(#k)"/><path d="m21.3 4.3h-.2z" fill="url(#l)"/><path d="m21.3 4.3h-.2z" fill="url(#k)"/><path d="m21.3 4.3h-.2z" fill="url(#l)"/><path d="m15.1 2.7-9.4-2.5-.4-.1c-.2 0-.3.1-.5.2l-4.2 4c-.4.3-.6.8-.6 1.3 0 .4.2.8.4 1.1l5.9 5.9 3.9-1.6.1-.2z" fill="url(#m)"/><path d="m15.1 2.7-9.4-2.5-.4-.1c-.2 0-.3.1-.5.2l-4.2 4c-.4.3-.6.8-.6 1.3 0 .4.2.8.4 1.1l5.9 5.9 3.9-1.6.1-.2z" fill="url(#m)"/><path d="m5.3.1.4.1 9.4 2.6 1.6-2.8h-11.1c-.2 0-.2 0-.3.1z" fill="#1ca3ff"/></g></g></g></svg>

<?xml version="1.0" encoding="UTF-8" standalone="no"?>
<!DOCTYPE svg PUBLIC "-//W3C//DTD SVG 1.1//EN" "http://www.w3.org/Graphics/SVG/1.1/DTD/svg11.dtd">
<svg width="100%" height="100%" viewBox="0 0 560 400" version="1.1" xmlns="http://www.w3.org/2000/svg" xmlns:xlink="http://www.w3.org/1999/xlink" xml:space="preserve" xmlns:serif="http://www.serif.com/" style="fill-rule:evenodd;clip-rule:evenodd;stroke-linejoin:round;stroke-miterlimit:2;">
    <g transform="matrix(3.92157,0,0,3.92157,70,162.745)">
        <path d="M39.6,10.3L37.9,12.1L37.9,15.3L35,15.3L35,2.5L37.9,2.5L37.9,8.5L43.6,2.5L46.9,2.5L41.6,8.2L47.2,15.3L43.8,15.3L39.6,10.3Z" style="fill:rgb(0,0,1);fill-rule:nonzero;"/>
        <path d="M52.3,5.7C52.9,5.5 53.5,5.3 54.3,5.3L54.3,8L53.7,8C52.9,8 52.2,8.2 51.8,8.7C51.3,9.2 51.1,9.8 51.1,10.8L51.1,15.4L48.3,15.4L48.3,5.5L51,5.5L51,6.8C51.3,6.3 51.7,6 52.3,5.7Z" style="fill:rgb(0,0,1);fill-rule:nonzero;"/>
        <path d="M66.5,5.5L62.1,15.9C61.7,17 61.1,17.8 60.4,18.3C59.8,18.8 59,19 58,19C57.5,19 57,18.9 56.5,18.8C56,18.6 55.6,18.4 55.3,18.1L56.3,16.1C56.5,16.3 56.8,16.4 57.1,16.6C57.4,16.7 57.7,16.8 57.9,16.8C58.3,16.8 58.6,16.7 58.8,16.5C59,16.3 59.3,16 59.5,15.6L59.5,15.5L55.3,5.6L58.2,5.6L61,12.3L63.8,5.6L66.5,5.6L66.5,5.5Z" style="fill:rgb(0,0,1);fill-rule:nonzero;"/>
        <path d="M75.6,6C76.3,6.4 76.9,7 77.4,7.8C77.8,8.6 78,9.4 78,10.5C78,11.5 77.8,12.4 77.4,13.2C77,14 76.4,14.5 75.6,15C74.9,15.4 74,15.6 73.1,15.6C71.8,15.6 70.9,15.2 70.1,14.4L70.1,19L67.3,19L67.3,5.5L70,5.5L70,6.6C70.7,5.7 71.7,5.3 73.1,5.3C74,5.3 74.9,5.6 75.6,6ZM74.4,12.4C74.9,11.9 75.1,11.2 75.1,10.4C75.1,9.6 74.9,8.9 74.4,8.4C73.9,7.9 73.3,7.7 72.6,7.7C71.9,7.7 71.3,7.9 70.8,8.4C70.3,8.9 70.1,9.6 70.1,10.4C70.1,11.2 70.3,11.9 70.8,12.4C71.3,12.9 71.9,13.1 72.6,13.1C73.4,13.1 74,12.9 74.4,12.4Z" style="fill:rgb(0,0,1);fill-rule:nonzero;"/>
        <path d="M85.9,14.8C85.6,15 85.3,15.2 84.9,15.3C84.5,15.4 84.1,15.5 83.6,15.5C82.4,15.5 81.5,15.2 80.9,14.6C80.3,14 79.9,13.1 79.9,12L79.9,8L78.4,8L78.4,5.7L79.9,5.7L79.9,3.3L82.7,3.3L82.7,5.7L85.1,5.7L85.1,7.9L82.7,7.9L82.7,11.9C82.7,12.3 82.8,12.6 83,12.9C83.2,13.1 83.5,13.2 83.9,13.2C84.3,13.2 84.7,13.1 85,12.8L85.9,14.8Z" style="fill:rgb(0,0,1);fill-rule:nonzero;"/>
        <path d="M96.3,11.2L88.9,11.2C89,11.8 89.3,12.3 89.8,12.6C90.3,13 90.9,13.1 91.7,13.1C92.2,13.1 92.7,13 93.1,12.9C93.5,12.7 93.9,12.5 94.2,12.2L95.7,13.8C94.8,14.9 93.4,15.4 91.7,15.4C90.6,15.4 89.6,15.2 88.8,14.8C87.9,14.4 87.3,13.8 86.8,13C86.3,12.2 86.1,11.4 86.1,10.4C86.1,9.4 86.3,8.6 86.8,7.8C87.2,7 87.8,6.4 88.6,6C89.4,5.6 90.3,5.4 91.3,5.4C92.3,5.4 93.1,5.6 93.9,6C94.7,6.4 95.3,7 95.7,7.8C96.1,8.6 96.4,9.5 96.4,10.5C96.4,10.5 96.4,10.7 96.3,11.2ZM89.7,8C89.3,8.4 89,8.9 88.9,9.5L93.7,9.5C93.6,8.9 93.3,8.4 92.9,8C92.5,7.6 91.9,7.4 91.3,7.4C90.6,7.5 90.1,7.7 89.7,8Z" style="fill:rgb(0,0,1);fill-rule:nonzero;"/>
        <path d="M103.8,15.3L101.6,12.3L99.4,15.3L96.3,15.3L100.1,10.4L96.5,5.5L99.7,5.5L101.8,8.4L103.9,5.5L106.9,5.5L103.3,10.3L107.1,15.3L103.8,15.3Z" style="fill:rgb(0,0,1);fill-rule:nonzero;"/>
    </g>
    <g transform="matrix(3.92157,0,0,3.92157,70,162.745)">
        <path d="M26.2,5.8C26.2,5.7 26.1,5.5 26,5.5C26.1,5.5 26.2,5.6 26.2,5.8Z" style="fill:none;fill-rule:nonzero;"/>
        <g transform="matrix(0.3198,-0.9475,0.9475,0.3198,3.7178,5.5165)">
            <path d="M5.7,0.2Z" style="fill:none;"/>
        </g>
        <path d="M15.1,2.7L10.3,10.8L15.1,2.7Z" style="fill:none;fill-rule:nonzero;"/>
        <path d="M26,6.1C26.1,6 26.2,5.9 26.2,5.7C26.2,5.9 26.2,6.1 26,6.1Z" style="fill:none;fill-rule:nonzero;"/>
        <path d="M26,6.1C26.1,6 26.2,5.9 26.2,5.7C26.2,5.6 26.1,5.4 26,5.4L24.4,5L21.3,4.2L21.2,4.2L15.2,2.7L10.4,10.7L10.3,10.9L8.3,14.3L10.5,16.5L26,6.1Z" style="fill:url(#_Linear1);fill-rule:nonzero;"/>
        <path d="M26,6.1C26.1,6 26.2,5.9 26.2,5.7C26.2,5.6 26.1,5.4 26,5.4L24.4,5L21.3,4.2L21.2,4.2L15.2,2.7L10.4,10.7L10.3,10.9L8.3,14.3L10.5,16.5L26,6.1Z" style="fill:url(#_Linear2);fill-rule:nonzero;"/>
        <path d="M26.4,4.3L22.2,0.4C22,0.1 21.7,0 21.3,0L16.7,0L15.1,2.7L21.1,4.2L21.2,4.2L24.3,5L26,5.5C26.1,5.5 26.2,5.7 26.2,5.8C26.2,5.9 26.1,6.1 26,6.2L10.4,16.6L12.3,18.5C12.6,18.8 13,19 13.5,19C13.8,19 14.2,18.9 14.4,18.7C14.5,18.6 14.6,18.5 14.7,18.4L26.6,6.7C26.9,6.4 27,6 27,5.6C27,5.1 26.8,4.6 26.4,4.3Z" style="fill:url(#_Linear3);fill-rule:nonzero;"/>
        <path d="M26.4,4.3L22.2,0.4C22,0.1 21.7,0 21.3,0L16.7,0L15.1,2.7L21.1,4.2L21.2,4.2L24.3,5L26,5.5C26.1,5.5 26.2,5.7 26.2,5.8C26.2,5.9 26.1,6.1 26,6.2L10.4,16.6L12.3,18.5C12.6,18.8 13,19 13.5,19C13.8,19 14.2,18.9 14.4,18.7C14.5,18.6 14.6,18.5 14.7,18.4L26.6,6.7C26.9,6.4 27,6 27,5.6C27,5.1 26.8,4.6 26.4,4.3Z" style="fill:url(#_Linear4);fill-rule:nonzero;"/>
        <path d="M26,6.1L10.4,16.6L26,6.1Z" style="fill:url(#_Linear5);fill-rule:nonzero;"/>
        <path d="M26,6.1L10.4,16.6L26,6.1Z" style="fill:url(#_Linear6);fill-rule:nonzero;"/>
        <path d="M26,6.1L10.4,16.6L26,6.1Z" style="fill:url(#_Linear7);fill-rule:nonzero;"/>
        <path d="M26,6.1L10.4,16.6L26,6.1Z" style="fill:url(#_Linear8);fill-rule:nonzero;"/>
        <path d="M15.1,2.7L21.1,4.3L15.1,2.7Z" style="fill:url(#_Linear9);fill-rule:nonzero;"/>
        <path d="M15.1,2.7L21.1,4.3L15.1,2.7Z" style="fill:url(#_Linear10);fill-rule:nonzero;"/>
        <path d="M15.1,2.7L21.1,4.3L15.1,2.7Z" style="fill:url(#_Linear11);fill-rule:nonzero;"/>
        <path d="M15.1,2.7L21.1,4.3L15.1,2.7Z" style="fill:url(#_Linear12);fill-rule:nonzero;"/>
        <path d="M26,5.5L24.4,5.1L21.3,4.3L24.4,5.1L26,5.5Z" style="fill:url(#_Linear13);fill-rule:nonzero;"/>
        <path d="M26,5.5L24.4,5.1L21.3,4.3L24.4,5.1L26,5.5Z" style="fill:url(#_Linear14);fill-rule:nonzero;"/>
        <path d="M26,5.5L24.4,5.1L21.3,4.3L24.4,5.1L26,5.5Z" style="fill:url(#_Linear15);fill-rule:nonzero;"/>
        <path d="M26,5.5L24.4,5.1L21.3,4.3L24.4,5.1L26,5.5Z" style="fill:url(#_Linear16);fill-rule:nonzero;"/>
        <path d="M21.3,4.3L21.1,4.3L21.3,4.3Z" style="fill:url(#_Linear17);fill-rule:nonzero;"/>
        <path d="M21.3,4.3L21.1,4.3L21.3,4.3Z" style="fill:url(#_Linear18);fill-rule:nonzero;"/>
        <path d="M21.3,4.3L21.1,4.3L21.3,4.3Z" style="fill:url(#_Linear19);fill-rule:nonzero;"/>
        <path d="M21.3,4.3L21.1,4.3L21.3,4.3Z" style="fill:url(#_Linear20);fill-rule:nonzero;"/>
        <path d="M21.3,4.3L21.1,4.3L21.3,4.3Z" style="fill:url(#_Linear21);fill-rule:nonzero;"/>
        <path d="M21.3,4.3L21.1,4.3L21.3,4.3Z" style="fill:url(#_Linear22);fill-rule:nonzero;"/>
        <path d="M21.3,4.3L21.1,4.3L21.3,4.3Z" style="fill:url(#_Linear23);fill-rule:nonzero;"/>
        <path d="M21.3,4.3L21.1,4.3L21.3,4.3Z" style="fill:url(#_Linear24);fill-rule:nonzero;"/>
        <path d="M15.1,2.7L5.7,0.2L5.3,0.1C5.1,0.1 5,0.2 4.8,0.3L0.6,4.3C0.2,4.6 0,5.1 0,5.6C0,6 0.2,6.4 0.4,6.7L6.3,12.6L10.2,11L10.3,10.8L15.1,2.7Z" style="fill:url(#_Linear25);fill-rule:nonzero;"/>
        <path d="M15.1,2.7L5.7,0.2L5.3,0.1C5.1,0.1 5,0.2 4.8,0.3L0.6,4.3C0.2,4.6 0,5.1 0,5.6C0,6 0.2,6.4 0.4,6.7L6.3,12.6L10.2,11L10.3,10.8L15.1,2.7Z" style="fill:url(#_Linear26);fill-rule:nonzero;"/>
        <path d="M5.3,0.1L5.7,0.2L15.1,2.8L16.7,0L5.6,0C5.4,0 5.4,0 5.3,0.1Z" style="fill:rgb(28,163,255);fill-rule:nonzero;"/>
    </g>
    <defs>
        <linearGradient id="_Linear1" x1="0" y1="0" x2="1" y2="0" gradientUnits="userSpaceOnUse" gradientTransform="matrix(8.3621,7.0166,-7.0166,8.3621,12.0415,5.8512)"><stop offset="0" style="stop-color:rgb(14,175,255);stop-opacity:1"/><stop offset="1" style="stop-color:rgb(1,99,229);stop-opacity:1"/></linearGradient>
        <linearGradient id="_Linear2" x1="0" y1="0" x2="1" y2="0" gradientUnits="userSpaceOnUse" gradientTransform="matrix(8.3621,7.0166,-7.0166,8.3621,12.0415,5.8512)"><stop offset="0" style="stop-color:rgb(14,175,255);stop-opacity:1"/><stop offset="1" style="stop-color:rgb(1,99,229);stop-opacity:1"/></linearGradient>
        <linearGradient id="_Linear3" x1="0" y1="0" x2="1" y2="0" gradientUnits="userSpaceOnUse" gradientTransform="matrix(8.2917,9.8816,-9.8816,8.2917,12.5706,3.4477)"><stop offset="0" style="stop-color:rgb(72,190,255);stop-opacity:1"/><stop offset="0.43" style="stop-color:rgb(28,163,255);stop-opacity:1"/><stop offset="1" style="stop-color:rgb(28,163,255);stop-opacity:1"/></linearGradient>
        <linearGradient id="_Linear4" x1="0" y1="0" x2="1" y2="0" gradientUnits="userSpaceOnUse" gradientTransform="matrix(8.2917,9.8816,-9.8816,8.2917,12.5706,3.4477)"><stop offset="0" style="stop-color:rgb(72,190,255);stop-opacity:1"/><stop offset="0.43" style="stop-color:rgb(28,163,255);stop-opacity:1"/><stop offset="1" style="stop-color:rgb(28,163,255);stop-opacity:1"/></linearGradient>
        <linearGradient id="_Linear5" x1="0" y1="0" x2="1" y2="0" gradientUnits="userSpaceOnUse" gradientTransform="matrix(8.362,7.0165,-7.0165,8.362,11.8805,6.0432)"><stop offset="0" style="stop-color:rgb(14,175,255);stop-opacity:1"/><stop offset="1" style="stop-color:rgb(1,99,229);stop-opacity:1"/></linearGradient>
        <linearGradient id="_Linear6" x1="0" y1="0" x2="1" y2="0" gradientUnits="userSpaceOnUse" gradientTransform="matrix(8.2917,9.8817,-9.8817,8.2917,11.9888,3.9358)"><stop offset="0" style="stop-color:rgb(72,190,255);stop-opacity:1"/><stop offset="0.43" style="stop-color:rgb(28,163,255);stop-opacity:1"/><stop offset="1" style="stop-color:rgb(28,163,255);stop-opacity:1"/></linearGradient>
        <linearGradient id="_Linear7" x1="0" y1="0" x2="1" y2="0" gradientUnits="userSpaceOnUse" gradientTransform="matrix(8.362,7.0165,-7.0165,8.362,11.8805,6.0432)"><stop offset="0" style="stop-color:rgb(14,175,255);stop-opacity:1"/><stop offset="1" style="stop-color:rgb(1,99,229);stop-opacity:1"/></linearGradient>
        <linearGradient id="_Linear8" x1="0" y1="0" x2="1" y2="0" gradientUnits="userSpaceOnUse" gradientTransform="matrix(8.2917,9.8817,-9.8817,8.2917,11.9888,3.9358)"><stop offset="0" style="stop-color:rgb(72,190,255);stop-opacity:1"/><stop offset="0.43" style="stop-color:rgb(28,163,255);stop-opacity:1"/><stop offset="1" style="stop-color:rgb(28,163,255);stop-opacity:1"/></linearGradient>
        <linearGradient id="_Linear9" x1="0" y1="0" x2="1" y2="0" gradientUnits="userSpaceOnUse" gradientTransform="matrix(8.3621,7.0166,-7.0166,8.3621,15.7122,1.4766)"><stop offset="0" style="stop-color:rgb(14,175,255);stop-opacity:1"/><stop offset="1" style="stop-color:rgb(1,99,229);stop-opacity:1"/></linearGradient>
        <linearGradient id="_Linear10" x1="0" y1="0" x2="1" y2="0" gradientUnits="userSpaceOnUse" gradientTransform="matrix(8.2917,9.8816,-9.8816,8.2917,15.8031,0.7353)"><stop offset="0" style="stop-color:rgb(72,190,255);stop-opacity:1"/><stop offset="0.43" style="stop-color:rgb(28,163,255);stop-opacity:1"/><stop offset="1" style="stop-color:rgb(28,163,255);stop-opacity:1"/></linearGradient>
        <linearGradient id="_Linear11" x1="0" y1="0" x2="1" y2="0" gradientUnits="userSpaceOnUse" gradientTransform="matrix(8.3621,7.0166,-7.0166,8.3621,15.7122,1.4766)"><stop offset="0" style="stop-color:rgb(14,175,255);stop-opacity:1"/><stop offset="1" style="stop-color:rgb(1,99,229);stop-opacity:1"/></linearGradient>
        <linearGradient id="_Linear12" x1="0" y1="0" x2="1" y2="0" gradientUnits="userSpaceOnUse" gradientTransform="matrix(8.2917,9.8816,-9.8816,8.2917,15.8031,0.7353)"><stop offset="0" style="stop-color:rgb(72,190,255);stop-opacity:1"/><stop offset="0.43" style="stop-color:rgb(28,163,255);stop-opacity:1"/><stop offset="1" style="stop-color:rgb(28,163,255);stop-opacity:1"/></linearGradient>
        <linearGradient id="_Linear13" x1="0" y1="0" x2="1" y2="0" gradientUnits="userSpaceOnUse" gradientTransform="matrix(8.3621,7.0166,-7.0166,8.3621,17.3052,-0.4218)"><stop offset="0" style="stop-color:rgb(14,175,255);stop-opacity:1"/><stop offset="1" style="stop-color:rgb(1,99,229);stop-opacity:1"/></linearGradient>
        <linearGradient id="_Linear14" x1="0" y1="0" x2="1" y2="0" gradientUnits="userSpaceOnUse" gradientTransform="matrix(8.2917,9.8816,-9.8816,8.2917,18.3529,-1.4042)"><stop offset="0" style="stop-color:rgb(72,190,255);stop-opacity:1"/><stop offset="0.43" style="stop-color:rgb(28,163,255);stop-opacity:1"/><stop offset="1" style="stop-color:rgb(28,163,255);stop-opacity:1"/></linearGradient>
        <linearGradient id="_Linear15" x1="0" y1="0" x2="1" y2="0" gradientUnits="userSpaceOnUse" gradientTransform="matrix(8.3621,7.0166,-7.0166,8.3621,17.3052,-0.4218)"><stop offset="0" style="stop-color:rgb(14,175,255);stop-opacity:1"/><stop offset="1" style="stop-color:rgb(1,99,229);stop-opacity:1"/></linearGradient>
        <linearGradient id="_Linear16" x1="0" y1="0" x2="1" y2="0" gradientUnits="userSpaceOnUse" gradientTransform="matrix(8.2917,9.8816,-9.8816,8.2917,18.3529,-1.4042)"><stop offset="0" style="stop-color:rgb(72,190,255);stop-opacity:1"/><stop offset="0.43" style="stop-color:rgb(28,163,255);stop-opacity:1"/><stop offset="1" style="stop-color:rgb(28,163,255);stop-opacity:1"/></linearGradient>
        <linearGradient id="_Linear17" x1="0" y1="0" x2="1" y2="0" gradientUnits="userSpaceOnUse" gradientTransform="matrix(8.362,7.0166,-7.0166,8.362,16.6034,0.4146)"><stop offset="0" style="stop-color:rgb(14,175,255);stop-opacity:1"/><stop offset="1" style="stop-color:rgb(1,99,229);stop-opacity:1"/></linearGradient>
        <linearGradient id="_Linear18" x1="0" y1="0" x2="1" y2="0" gradientUnits="userSpaceOnUse" gradientTransform="matrix(8.2917,9.8816,-9.8816,8.2917,17.2295,-0.4616)"><stop offset="0" style="stop-color:rgb(72,190,255);stop-opacity:1"/><stop offset="0.43" style="stop-color:rgb(28,163,255);stop-opacity:1"/><stop offset="1" style="stop-color:rgb(28,163,255);stop-opacity:1"/></linearGradient>
        <linearGradient id="_Linear19" x1="0" y1="0" x2="1" y2="0" gradientUnits="userSpaceOnUse" gradientTransform="matrix(8.362,7.0166,-7.0166,8.362,16.6034,0.4146)"><stop offset="0" style="stop-color:rgb(14,175,255);stop-opacity:1"/><stop offset="1" style="stop-color:rgb(1,99,229);stop-opacity:1"/></linearGradient>
        <linearGradient id="_Linear20" x1="0" y1="0" x2="1" y2="0" gradientUnits="userSpaceOnUse" gradientTransform="matrix(8.2917,9.8816,-9.8816,8.2917,17.2295,-0.4616)"><stop offset="0" style="stop-color:rgb(72,190,255);stop-opacity:1"/><stop offset="0.43" style="stop-color:rgb(28,163,255);stop-opacity:1"/><stop offset="1" style="stop-color:rgb(28,163,255);stop-opacity:1"/></linearGradient>
        <linearGradient id="_Linear21" x1="0" y1="0" x2="1" y2="0" gradientUnits="userSpaceOnUse" gradientTransform="matrix(8.362,7.0166,-7.0166,8.362,16.6034,0.4146)"><stop offset="0" style="stop-color:rgb(14,175,255);stop-opacity:1"/><stop offset="1" style="stop-color:rgb(1,99,229);stop-opacity:1"/></linearGradient>
        <linearGradient id="_Linear22" x1="0" y1="0" x2="1" y2="0" gradientUnits="userSpaceOnUse" gradientTransform="matrix(8.2917,9.8816,-9.8816,8.2917,17.2295,-0.4616)"><stop offset="0" style="stop-color:rgb(72,190,255);stop-opacity:1"/><stop offset="0.43" style="stop-color:rgb(28,163,255);stop-opacity:1"/><stop offset="1" style="stop-color:rgb(28,163,255);stop-opacity:1"/></linearGradient>
        <linearGradient id="_Linear23" x1="0" y1="0" x2="1" y2="0" gradientUnits="userSpaceOnUse" gradientTransform="matrix(8.362,7.0166,-7.0166,8.362,16.6034,0.4146)"><stop offset="0" style="stop-color:rgb(14,175,255);stop-opacity:1"/><stop offset="1" style="stop-color:rgb(1,99,229);stop-opacity:1"/></linearGradient>
        <linearGradient id="_Linear24" x1="0" y1="0" x2="1" y2="0" gradientUnits="userSpaceOnUse" gradientTransform="matrix(8.2917,9.8816,-9.8816,8.2917,17.2295,-0.4616)"><stop offset="0" style="stop-color:rgb(72,190,255);stop-opacity:1"/><stop offset="0.43" style="stop-color:rgb(28,163,255);stop-opacity:1"/><stop offset="1" style="stop-color:rgb(28,163,255);stop-opacity:1"/></linearGradient>
        <linearGradient id="_Linear25" x1="0" y1="0" x2="1" y2="0" gradientUnits="userSpaceOnUse" gradientTransform="matrix(15.1035,0,0,15.1035,0,6.3174)"><stop offset="0" style="stop-color:rgb(43,170,251);stop-opacity:1"/><stop offset="1" style="stop-color:rgb(1,99,229);stop-opacity:1"/></linearGradient>
        <linearGradient id="_Linear26" x1="0" y1="0" x2="1" y2="0" gradientUnits="userSpaceOnUse" gradientTransform="matrix(15.1035,0,0,15.1035,0,6.3174)"><stop offset="0" style="stop-color:rgb(43,170,251);stop-opacity:1"/><stop offset="1" style="stop-color:rgb(1,99,229);stop-opacity:1"/></linearGradient>
    </defs>
</svg>
